package/converter/svg/solid/signal-bars-slash.svg

<svg xmlns="http://www.w3.org/2000/svg" viewBox="0 0 640 512"><!-- Font Awesome Pro 6.0.0-alpha2 by @fontawesome - https://fontawesome.com License - https://fontawesome.com/license (Commercial License) --><path d="M351.999 463.992C351.999 490.393 373.599 511.992 399.999 511.992S447.999 490.393 447.999 463.992V447.803L351.999 372.563V463.992ZM80.001 383.994C53.601 383.994 32.001 405.594 32.001 431.994V463.992C32.001 490.393 53.601 511.992 80.001 511.992S128.001 490.393 128.001 463.992V431.994C128.001 405.594 106.402 383.994 80.001 383.994ZM630.812 469.102L607.999 451.221V48C607.999 21.6 586.4 0 559.999 0S511.999 21.6 511.999 48V375.98L447.999 325.818V175.996C447.999 149.598 426.4 127.998 399.999 127.998S351.999 149.598 351.999 175.998V250.576L38.814 5.109C34.407 1.672 29.189 0 24.032 0C16.907 0 9.845 3.156 5.126 9.188C-3.061 19.625 -1.249 34.717 9.189 42.889L601.187 506.883C611.687 515.086 626.749 513.211 634.874 502.805C643.062 492.367 641.249 477.273 630.812 469.102ZM192.001 304V464C192.001 490.4 213.601 512 240.001 512S288.001 490.4 288.001 464V322.596L213.4 264.125C200.529 272.758 192.001 287.424 192.001 304Z"/></svg>

<svg xmlns="http://www.w3.org/2000/svg" viewBox="0 0 640 512"><!--! Font Awesome Pro 6.6.0 by @fontawesome - https://fontawesome.com License - https://fontawesome.com/license (Commercial License) Copyright 2024 Fonticons, Inc. --><path d="M38.8 5.1C28.4-3.1 13.3-1.2 5.1 9.2S-1.2 34.7 9.2 42.9l592 464c10.4 8.2 25.5 6.3 33.7-4.1s6.3-25.5-4.1-33.7L608 451.2 608 48c0-26.5-21.5-48-48-48s-48 21.5-48 48l0 328-64-50.2L448 176c0-26.5-21.5-48-48-48s-48 21.5-48 48l0 74.6L38.8 5.1zM288 322.9l-74.7-58.8C200.5 272.7 192 287.4 192 304l0 160c0 26.5 21.5 48 48 48s48-21.5 48-48l0-141.1zM448 464l0-15-96-75.6 0 90.7c0 26.5 21.5 48 48 48s48-21.5 48-48zM80 384c-26.5 0-48 21.5-48 48l0 32c0 26.5 21.5 48 48 48s48-21.5 48-48l0-32c0-26.5-21.5-48-48-48z"/></svg>
